shader_type canvas_item;

uniform int radius: hint_range(0, 64, 1)


void fragment() {
	
}

//void light() {
	// Called for every pixel for every light affecting the CanvasItem.
	// Uncomment to replace the default light processing function with this one.
//}
